X: 1376
T: Miss Johnson
M: C|
L: 1/8
B: O'Neill's 1850 #1376
Z: "Transcribed by Bob Safranek, rjs@gsp.org"
K: G	% or Bphr?
(dc) !segno!|: Bcde dcBc | dBgB bBgB |1 Bcde dcBc | Aaag fedc :|2 bagf gfed | egfa gedc |] BcBA G2(BG) |
| DGBG DG B2 | BcBA G2 (BG) | FGAB cedc || BcBA G2BG | DGBG DGBc | dBcA BGAF | DEFG ABc!segno!A |]
